X: 37343
T: Sláinte Ag An Doras
R: reel
M: 4/4
K: Dmajor
A>G|F2 A>d f>dA<a|(3gag B>d g>fe<d|c2 A>c e>Ac>A|d2 A>d f>dA<G|
F>DA>D F>d (3Ada|g>G (3Bcd g2 e<d|c>aA>c e>Ac>a|d2 (3ABA D2||
d>e|f>d (3ddd A>F (3FFF|G>BD>G (3Bcd G>d|c>eA>e (3cde A>e|dfAf (3dd/e/f a>g|
f>dc>d A<F D2|G>BD>G B<d G2|c2 a2 (3gec (3A>Bc|d2. A2. D2.||

